assets/images/logos/Adobe_logo.svg

<?xml version="1.0" encoding="utf-8"?>
<!-- Generator: Adobe Illustrator 14.0.0, SVG Export Plug-In . SVG Version: 6.00 Build 43363)  -->
<!DOCTYPE svg PUBLIC "-//W3C//DTD SVG 1.1//EN" "http://www.w3.org/Graphics/SVG/1.1/DTD/svg11.dtd">
<svg version="1.1" id="adobe" xmlns="http://www.w3.org/2000/svg" xmlns:xlink="http://www.w3.org/1999/xlink" x="0px" y="0px"
	 width="400px" height="300px" viewBox="0 0 400 300" enable-background="new 0 0 400 300" xml:space="preserve">
<path style="fill:white;" id="a" d="M136.041,246.521l-2.006-11.879c-0.571-3.424-1.303-8.772-1.86-12.479h-0.217c-0.586,3.732-1.404,9.236-2.005,12.509
	l-2.158,11.849H136.041L136.041,246.521z M126.718,254.26l-2.605,13.182h-9.626l12.009-54.84h11.798l10.909,54.84h-9.677
	l-2.548-13.182H126.718z"/>
<path style="fill:white;" id="d" d="M171.112,242.945c0-0.731,0-1.586-0.146-2.367c-0.383-2.708-1.823-5.146-4.141-5.146
	c-3.974,0-5.436,5.727-5.436,12.422c0,7.694,2.084,12.073,5.298,12.073c1.47,0,3.163-0.753,4.083-3.981
	c0.225-0.644,0.34-1.504,0.34-2.512L171.112,242.945L171.112,242.945z M180.993,211.146v44.922c0,3.562,0.181,7.94,0.326,11.365
	h-8.534l-0.557-4.568h-0.203c-1.435,2.816-4.553,5.212-8.281,5.212c-8.172,0-12.225-9.019-12.225-20.406
	c0-13.875,6.043-20.622,12.63-20.622c3.446,0,5.676,1.688,6.798,4.127h0.167v-20.029H180.993L180.993,211.146z"/>
<path style="fill:white;" id="o" d="M201.572,260.499c3.771,0,4.705-7.108,4.705-12.993c0-5.596-0.935-12.886-4.871-12.886
	c-4.17,0-5.046,7.29-5.046,12.886c0,6.753,1.1,12.993,5.125,12.993H201.572z M201.385,268.077c-9.105,0-14.817-7.312-14.817-20.397
	c0-14.281,7.333-20.631,15.048-20.631c8.983,0,14.615,7.667,14.615,20.399c0,16.358-8.823,20.629-14.768,20.629H201.385z"/>
<path style="fill:white;" id="b" d="M231.635,253.246c0,0.99,0.183,1.919,0.393,2.54c0.991,3.323,2.671,4.141,4.017,4.141
	c3.822,0,5.364-4.844,5.364-12.588c0-7.052-1.629-11.907-5.407-11.907c-1.875,0-3.453,2.035-3.996,4.221
	c-0.188,0.688-0.369,1.759-0.369,2.496L231.635,253.246L231.635,253.246z M221.753,211.146h9.881v20.701h0.159
	c1.946-3.056,4.538-4.8,8.304-4.8c7.447,0,11.19,8.47,11.19,19.544c0,13.993-5.582,21.484-12.813,21.484
	c-3.446,0-5.74-1.528-7.812-5.399h-0.209l-0.55,4.757h-8.483c0.146-3.293,0.332-7.805,0.332-11.365V211.146L221.753,211.146z"/>
<path style="fill:white;" id="e" d="M274.965,243.777c0.053-5.58-1.586-9.49-4.72-9.49c-3.575,0-5.096,5.234-5.205,9.49H274.965z M265.004,250.764
	c0.117,7.188,3.896,9.526,8.586,9.526c2.976,0,5.522-0.66,7.405-1.367l1.332,7.107c-2.622,1.128-6.668,1.838-10.548,1.838
	c-10.604,0-16.396-7.247-16.396-19.623c0-13.283,6.72-21.261,15.491-21.261c8.478,0,13.174,7.05,13.174,18.56
	c0,2.636-0.107,4.119-0.281,5.276L265.004,250.764z"/>
<polygon id="red_2_" fill="white" points="220.849,31.961 284.056,31.961 284.056,183.285 "/>
<polygon id="red_1_" fill="white" points="176.317,31.961 113.073,31.961 113.073,183.285 "/>
<polygon id="red" fill="white" points="198.59,87.72 238.858,183.277 212.474,183.277 200.428,152.84 170.946,152.84 "/>
</svg>

<svg width="400" height="300" viewBox="0 0 400 300" fill="none" xmlns="http://www.w3.org/2000/svg">
<path d="M136.041 246.521L134.035 234.642C133.464 231.218 132.732 225.87 132.175 222.163H131.958C131.372 225.895 130.554 231.399 129.953 234.672L127.795 246.521H136.041V246.521ZM126.718 254.26L124.113 267.442H114.487L126.496 212.602H138.294L149.203 267.442H139.526L136.978 254.26H126.718V254.26Z" fill="#F4F7FE"/>
<path d="M171.112 242.945C171.112 242.214 171.112 241.359 170.966 240.578C170.583 237.87 169.143 235.432 166.825 235.432C162.851 235.432 161.389 241.159 161.389 247.854C161.389 255.548 163.473 259.927 166.687 259.927C168.157 259.927 169.85 259.174 170.77 255.946C170.995 255.302 171.11 254.442 171.11 253.434L171.112 242.945ZM180.993 211.146V256.068C180.993 259.63 181.174 264.009 181.319 267.434H172.785L172.228 262.865H172.025C170.59 265.681 167.472 268.077 163.744 268.077C155.572 268.077 151.519 259.058 151.519 247.671C151.519 233.796 157.562 227.049 164.149 227.049C167.595 227.049 169.825 228.737 170.947 231.176H171.114V211.147H180.993V211.146Z" fill="#F4F7FE"/>
<path d="M201.572 260.499C205.343 260.499 206.277 253.391 206.277 247.506C206.277 241.91 205.342 234.62 201.406 234.62C197.236 234.62 196.36 241.91 196.36 247.506C196.36 254.259 197.46 260.499 201.485 260.499H201.572ZM201.385 268.077C192.28 268.077 186.568 260.765 186.568 247.68C186.568 233.399 193.901 227.049 201.616 227.049C210.599 227.049 216.231 234.716 216.231 247.448C216.231 263.806 207.408 268.077 201.463 268.077H201.385Z" fill="#F4F7FE"/>
<path d="M231.635 253.246C231.635 254.236 231.818 255.165 232.028 255.786C233.019 259.109 234.699 259.927 236.045 259.927C239.867 259.927 241.409 255.083 241.409 247.339C241.409 240.287 239.78 235.432 236.002 235.432C234.127 235.432 232.549 237.467 232.006 239.653C231.818 240.341 231.637 241.412 231.637 242.149L231.635 253.246ZM221.753 211.146H231.634V231.847H231.793C233.739 228.791 236.331 227.047 240.097 227.047C247.544 227.047 251.287 235.517 251.287 246.591C251.287 260.584 245.705 268.076 238.474 268.076C235.028 268.076 232.734 266.547 230.662 262.676H230.453L229.903 267.434H221.42C221.566 264.141 221.752 259.628 221.752 256.068V211.146H221.753Z" fill="#F4F7FE"/>
<path d="M274.965 243.777C275.018 238.197 273.379 234.287 270.245 234.287C266.67 234.287 265.149 239.521 265.04 243.777H274.965ZM265.004 250.764C265.121 257.952 268.9 260.29 273.59 260.29C276.566 260.29 279.112 259.63 280.995 258.923L282.327 266.03C279.705 267.158 275.659 267.868 271.779 267.868C261.175 267.868 255.383 260.621 255.383 248.245C255.383 234.962 262.103 226.984 270.874 226.984C279.352 226.984 284.048 234.034 284.048 245.544C284.048 248.18 283.941 249.663 283.767 250.82L265.004 250.764Z" fill="#F4F7FE"/>
<path d="M220.849 31.9609H284.056V183.285L220.849 31.9609Z" fill="#F4F7FE"/>
<path d="M176.317 31.9609H113.073V183.285L176.317 31.9609Z" fill="#F4F7FE"/>
<path d="M198.59 87.7197L238.858 183.277H212.474L200.428 152.84H170.946L198.59 87.7197Z" fill="#F4F7FE"/>
</svg>
